X:1
T:The Buck From The Mountain
R:hornpipe
M:4/4
L:1/8
K:D
FG|:AFAd BGBd|AFAd ~f2fe|dfgf edBc|dBAG FEDF|
|AFAd BGBd|AFAd ~f2fe|dfgf edBc|1 dgfe d2FG:|2 dgfe d2ef|]
|:gfge cABc|dcde ~f2ef|gfge cABc|dBAG FEDF|
|AFAd BGBd|AFAd ~f2fe|dfgf edBc|1 dgfe d2ef:|2 dgfe d2FG|]